icons/1_Primary/MongoDB.svg

<svg xmlns="http://www.w3.org/2000/svg" viewBox="0 0 1024 1024">
   <circle cx="512" cy="512" r="512" style="fill:#13aa52"/>
   <path d="M648.86 449.44c-32.34-142.73-108.77-189.66-117-207.59-9-12.65-18.12-35.15-18.12-35.15-.15-.38-.39-1.05-.67-1.7-.93 12.65-1.41 17.53-13.37 30.29-18.52 14.48-113.54 94.21-121.27 256.37-7.21 151.24 109.25 241.36 125 252.85l1.79 1.27v-.11c.1.76 5 36 8.44 73.34H526a726.68 726.68 0 0 1 13-78.53l1-.65a204.48 204.48 0 0 0 20.11-16.45l.72-.65c33.48-30.93 93.67-102.47 93.08-216.53a347.07 347.07 0 0 0-5.05-56.76zM512.35 659.12s0-212.12 7-212.08c5.46 0 12.53 273.61 12.53 273.61-9.72-1.17-19.53-45.03-19.53-61.53z" style="fill:#fff"/>
</svg>

<svg width="1024" height="1024" viewBox="0 0 1024 1024" fill="none" xmlns="http://www.w3.org/2000/svg">
<g clip-path="url(#clip0_2_2835)">
<path d="M512 1024C794.77 1024 1024 794.77 1024 512C1024 229.23 794.77 0 512 0C229.23 0 0 229.23 0 512C0 794.77 229.23 1024 512 1024Z" fill="#98DC9A"/>
<path d="M648.86 449.44C616.52 306.71 540.09 259.78 531.86 241.85C522.86 229.2 513.74 206.7 513.74 206.7C513.59 206.32 513.35 205.65 513.07 205C512.14 217.65 511.66 222.53 499.7 235.29C481.18 249.77 386.16 329.5 378.43 491.66C371.22 642.9 487.68 733.02 503.43 744.51L505.22 745.78V745.67C505.32 746.43 510.22 781.67 513.66 819.01H526C528.896 792.615 533.236 766.399 539 740.48L540 739.83C547.046 734.779 553.763 729.284 560.11 723.38L560.83 722.73C594.31 691.8 654.5 620.26 653.91 506.2C653.786 487.174 652.097 468.19 648.86 449.44ZM512.35 659.12C512.35 659.12 512.35 447 519.35 447.04C524.81 447.04 531.88 720.65 531.88 720.65C522.16 719.48 512.35 675.62 512.35 659.12Z" fill="white"/>
</g>
<defs>
<clipPath id="clip0_2_2835">
<rect width="1024" height="1024" fill="white"/>
</clipPath>
</defs>
</svg>
